X:6815
T:The Geezer and the Guiser
O:england
M:4/4
L:1/8
K:C
EE | AGAB cBcd | e2ec d2cd |1 e2A2 AcbA | G2E2 E2 :|
2 ea2b aged | c2A2 A2 ||
K:G
| ea2b agef | gedB G2 G2 | ea2b agef | g4 g4 |
ea2b agef | gedB G2 cd | ee2e d2 B2 | A6 ||


